X:1
T:We three kings of orient are
T:We three kings of orient are
L:1/8
M:3/4
K:G
V:1 alto nm="Viola" snm="Vla."
V:1
 (vB4 A2) | (G4 E2) | (F2 G2 F2) | E6 :| .G4- .G2 | .A4- .A2 | .B4- .B2 | (d2 c2 B2) | (A2 B2 A2) | %9
 (G4 F2) | E6 |!f! (uF4 A2) |: .vG4- .G2 | (G4 D2) | (G4 E2) | G6 :| .G4- .G2 | (A4 B2) | (c4 B2) | %19
 (A4 B2) | .G4- .G2 | (G4 D2) | (G4 E2) | uG6 |] %24

